X:7
T:Eklundapolska
S:Emma Tibell, tr. F. Paterson
R:Polska
O:Sweden
N:needs abc2mtex
M:3/4
L:1/16
C:e Viksta-Lasse
A:Uppland
K:G
(vg2|\
g2)(gb) b2g2 d2B2|(vcB)cd (eg)ec A3(vc|\
~B2)AB (cd)cA (Bc)(BG)|(vAd3) {c}[D6d6] (vg2|
g2)(gb) b2g2 d2B2| (ucB)cd (eg)ec A3(uc|\
~B2)AB (cd)cA (Bc)(BG)| (u~AB)AF {F}[uG6G,6]:|
[vA2(D2]|\
[B3)D3](B ~c3)(c ~B3)B|\
(vAd3) {c}[D6d6] [vA2(D2]|\
[D3)B3][B(D] [D3)c3][c(D] [D3)B3][DB]|\
(vAB)AF uD6 [vD2(B2]|
[B3)D3][B(D] [D3)~c3][c(D] [D3)~B3][DB]|\
(vAd3) {c}[D6d6] [vF2(G,2]|\
[G,2)G2]AB (cd)cA (Bc)(BG)| (vAB)AF {F}[uG6G,6]||
[vE2(B2]|\
BE)(BE) (cE)(cE) (BE)[E2~B2]|\
[D(A]d3) {c}[D6d6] [vE2(B2]|\
BE)(BE) (cE)(cE) (BE)~B2| (vAB)AF uD6 [vE2(B2]|
BE)(BE) (cE)(cE) (BE)~B2|\
(Ad3) {c}[D6d6] [vF2(G,2]|\
[G,2)G2]AB (cd)cA (Bc)(BG)|(vA~B)AF {F}[G,6G6]|]
